icons/svg/play-circular.svg

<svg width="24" height="24" viewBox="0 0 24 24" fill="none" xmlns="http://www.w3.org/2000/svg">
<circle cx="12" cy="12" r="9.25" stroke="currentColor" stroke-width="1.5" stroke-linecap="round" stroke-linejoin="round"/>
<path d="M8.93005 13.2905C8.93005 14.3877 8.93005 14.9364 9.16051 15.2539C9.36153 15.5309 9.67056 15.7097 10.0109 15.7459C10.4011 15.7874 10.8767 15.5139 11.8279 14.967L14.0722 13.6765C15.0285 13.1266 15.5066 12.8517 15.6669 12.4924C15.8067 12.179 15.8067 11.821 15.6669 11.5076C15.5066 11.1483 15.0285 10.8734 14.0722 10.3235L11.8279 9.03305C10.8767 8.48609 10.4011 8.21262 10.0109 8.25411C9.67056 8.29031 9.36153 8.46909 9.16051 8.74608C8.93005 9.06363 8.93005 9.61226 8.93005 10.7095V13.2905Z" stroke="currentColor" stroke-width="1.5"/>
</svg>

<svg xmlns="http://www.w3.org/2000/svg" width="24" height="24" fill="none" viewBox="0 0 24 24"><circle cx="12" cy="12" r="9.25" stroke="currentColor" stroke-linecap="round" stroke-linejoin="round" stroke-width="1.5"/><path stroke="currentColor" stroke-width="1.5" d="M8.93 13.29c0 1.098 0 1.646.23 1.964.202.277.51.456.85.492.391.041.867-.232 1.818-.779l2.244-1.29c.957-.55 1.435-.825 1.595-1.185.14-.313.14-.671 0-.984-.16-.36-.639-.635-1.595-1.184l-2.244-1.291c-.951-.547-1.427-.82-1.817-.779-.34.036-.65.215-.85.492-.23.318-.23.866-.23 1.963z"/></svg>
